icons/typescriptdef.svg

<svg width="16" height="16" viewBox="0 0 16 16" fill="none" xmlns="http://www.w3.org/2000/svg">
<path fill-rule="evenodd" clip-rule="evenodd" d="M3 4H13V12H3L3 4ZM2 4C2 3.44772 2.44772 3 3 3H13C13.5523 3 14 3.44772 14 4V12C14 12.5523 13.5523 13 13 13H3C2.44772 13 2 12.5523 2 12V4ZM4.30235 6.25186V7.20671H5.76371V11.5035H6.77471V7.20671H8.23607V6.25186H4.30235ZM11.1588 6.26087C10.9658 6.21814 10.7684 6.19699 10.5706 6.19782C10.207 6.18294 9.84415 6.24118 9.50442 6.36897C9.22849 6.48022 8.99422 6.67208 8.83348 6.91845C8.6647 7.18895 8.58154 7.50243 8.59452 7.81925C8.57161 8.13831 8.65903 8.45563 8.84267 8.72004C8.99696 8.91962 9.20801 9.07005 9.44927 9.15242C9.74684 9.25471 10.0551 9.3242 10.3684 9.3596H10.4419L10.9382 9.4677C11.0602 9.49785 11.1714 9.56016 11.2599 9.64786C11.3021 9.69235 11.3346 9.74492 11.3551 9.80228C11.3757 9.85963 11.3839 9.92053 11.3794 9.98115C11.3824 10.0766 11.3582 10.1711 11.3095 10.2538C11.2608 10.3366 11.1895 10.4044 11.1036 10.4496C10.8694 10.5713 10.6054 10.6274 10.3408 10.6117C10.0564 10.6115 9.77388 10.5658 9.50442 10.4766C9.24542 10.393 9.00518 10.2615 8.79672 10.0892L8.32798 10.909C8.50257 11.0484 8.69394 11.1664 8.89782 11.2603C9.11919 11.3581 9.35016 11.4335 9.58714 11.4855C9.83556 11.5322 10.0878 11.5563 10.3408 11.5575C10.7176 11.5673 11.0927 11.503 11.4437 11.3684C11.7282 11.2638 11.9724 11.0749 12.1422 10.8279C12.3176 10.5602 12.4013 10.2446 12.3812 9.9271C12.3999 9.62794 12.3193 9.33086 12.1514 9.08036C12.0112 8.87823 11.8128 8.72147 11.5816 8.62996C11.3085 8.52404 11.0252 8.44557 10.736 8.39575H10.6073C10.4209 8.3615 10.2368 8.31638 10.0559 8.26063C9.93248 8.22884 9.82089 8.16322 9.73419 8.07147C9.68742 8.02376 9.65106 7.96719 9.62736 7.90524C9.60365 7.84328 9.5931 7.77724 9.59633 7.71115C9.59655 7.62564 9.62065 7.54182 9.66601 7.46877C9.71137 7.39573 9.77627 7.33625 9.85367 7.29678C10.0746 7.18446 10.322 7.13162 10.5706 7.14365C10.7934 7.14474 11.0143 7.18438 11.2231 7.26075C11.4499 7.34346 11.6659 7.45232 11.8665 7.58504L12.2985 6.7473C12.125 6.63083 11.9403 6.53127 11.747 6.45004C11.5572 6.36954 11.3603 6.30622 11.1588 6.26087Z" fill="#0E8ADC"/>
</svg>

<svg xmlns="http://www.w3.org/2000/svg" width="16" height="16" fill="none"><path fill="#0E8ADC" fill-rule="evenodd" d="M3 4h10v8H3V4ZM2 4a1 1 0 0 1 1-1h10a1 1 0 0 1 1 1v8a1 1 0 0 1-1 1H3a1 1 0 0 1-1-1V4Zm2.302 2.252v.955h1.462v4.297h1.01V7.207h1.462v-.955H4.302Zm6.857.009a2.67 2.67 0 0 0-.588-.063 2.714 2.714 0 0 0-1.067.171c-.276.111-.51.303-.67.55-.17.27-.252.583-.24.9-.022.32.065.637.249.901.154.2.365.35.606.432.298.103.606.172.92.208h.073l.496.108c.122.03.233.092.322.18a.44.44 0 0 1 .12.333.506.506 0 0 1-.276.469 1.467 1.467 0 0 1-.763.162c-.285 0-.567-.046-.837-.135a2.145 2.145 0 0 1-.707-.388l-.469.82c.175.14.366.257.57.351.221.098.452.174.69.226.248.046.5.07.753.071.377.01.752-.054 1.103-.189.284-.104.528-.293.698-.54.176-.268.26-.583.24-.9.018-.3-.063-.597-.23-.848a1.255 1.255 0 0 0-.57-.45 4.408 4.408 0 0 0-.846-.234h-.129a4.845 4.845 0 0 1-.551-.135.674.674 0 0 1-.322-.19.485.485 0 0 1-.138-.36.462.462 0 0 1 .258-.414 1.43 1.43 0 0 1 .717-.153c.222 0 .443.04.652.117.227.082.443.191.643.324l.433-.838a3.442 3.442 0 0 0-1.14-.486Z" clip-rule="evenodd"/></svg>
